X: 1
T: The Flowing Bowl
R: reel
M: 4/4
L: 1/8
K: Dmaj
gfed cAAB|cAdB cAAf|gfed cdef|fage d2 ef|
gfed cAAB|cAdB cAAf|gfed cdef|fage d2 (3ABc||
d2 fd Adfd|d2 fa gece|d2 fd Adfd|g2 fg egfe|
d2 fd Adfd|d2 fa gece|d2 fd Adfd|g2 fg e3 f||


Tune 395	Setting 13236

